X:1
T:Kyrie - A195
C:J.F. Michel
M:C
L:1/8
K:Dm
"Rem"AA GF "Lam"E3C|"Rem"D8|AA GF E3C|D8||"Fa"FF ED F2G2|AA GA d2c2|A8||
